img/icons/astronaut.svg

<svg width="70" height="70" viewBox="0 0 70 70" fill="none" xmlns="http://www.w3.org/2000/svg">
<path d="M69.9433 9.89643C69.8056 9.47519 69.4416 9.1673 69.0018 9.10304L64.8228 8.49518L62.9526 4.70815C62.5606 3.91011 61.2527 3.91011 60.8608 4.70815L58.9906 8.49518L54.8114 9.10318C54.3716 9.1673 54.0076 9.47424 53.8687 9.89657C53.7323 10.3189 53.8453 10.7832 54.1639 11.0925L57.1891 14.0407L56.4752 18.2035C56.4005 18.641 56.5802 19.0831 56.9384 19.3445C57.3012 19.6083 57.7748 19.6408 58.168 19.4331L61.9061 17.4672L65.6442 19.4331C65.8146 19.5229 66.0024 19.5672 66.1879 19.5672C66.4294 19.5672 66.671 19.4926 66.874 19.3444C67.2333 19.0831 67.413 18.6408 67.3372 18.2033L66.6233 14.0406L69.6485 11.0923C69.9654 10.782 70.0798 10.3188 69.9433 9.89643ZM64.5556 12.7992C64.2815 13.0663 64.1555 13.4536 64.2208 13.8317L64.6385 16.2689L62.4499 15.1185C62.2795 15.0287 62.0929 14.9844 61.9061 14.9844C61.7195 14.9844 61.534 15.0287 61.3624 15.1185L59.1736 16.2689L59.5913 13.8317C59.6567 13.4536 59.5306 13.0675 59.2565 12.7992L57.4843 11.0725L59.932 10.7166C60.3124 10.6618 60.6402 10.4227 60.8106 10.0784L61.9049 7.86175L62.9992 10.0784C63.1696 10.4225 63.4974 10.6618 63.8778 10.7166L66.3255 11.0725L64.5556 12.7992Z" fill="#2196F3"/>
<path d="M57.167 44.8923H54.8336V47.2257H57.167V44.8923Z" fill="#2196F3"/>
<path d="M57.167 49.5591H54.8336V51.8925H57.167V49.5591Z" fill="#2196F3"/>
<path d="M59.5004 47.2256H57.167V49.559H59.5004V47.2256Z" fill="#2196F3"/>
<path d="M54.8337 47.2256H52.5003V49.559H54.8337V47.2256Z" fill="#2196F3"/>
<path d="M49.0002 57.7258H46.6668V60.0592H49.0002V57.7258Z" fill="#2196F3"/>
<path d="M49.0002 62.3926H46.6668V64.726H49.0002V62.3926Z" fill="#2196F3"/>
<path d="M51.3337 60.0593H49.0002V62.3927H51.3337V60.0593Z" fill="#2196F3"/>
<path d="M46.6668 60.0593H44.3334V62.3927H46.6668V60.0593Z" fill="#2196F3"/>
<path d="M35 53.0593H32.6666V55.3927H35V53.0593Z" fill="#2196F3"/>
<path d="M35 57.7258H32.6666V60.0592H35V57.7258Z" fill="#2196F3"/>
<path d="M37.3334 55.3926H35V57.726H37.3334V55.3926Z" fill="#2196F3"/>
<path d="M32.6666 55.3926H30.3332V57.726H32.6666V55.3926Z" fill="#2196F3"/>
<path d="M12.833 13.3918H10.4996V15.7253H12.833V13.3918Z" fill="#2196F3"/>
<path d="M12.833 18.0586H10.4996V20.392H12.833V18.0586Z" fill="#2196F3"/>
<path d="M15.1663 15.7253H12.8329V18.0588H15.1663V15.7253Z" fill="#2196F3"/>
<path d="M10.4996 15.7253H8.1662V18.0588H10.4996V15.7253Z" fill="#2196F3"/>
<path d="M54.0635 30.9737C53.4348 30.1255 52.5119 29.5796 51.4642 29.4325C50.4119 29.2832 49.3735 29.5596 48.5335 30.2025L45.7952 32.3013L45.794 32.3025L41.6429 35.4024L38.6725 34.2194C43.9692 31.8429 47.6712 26.545 47.6712 20.3942C47.6712 12.0313 40.8402 5.22729 32.4436 5.22729C24.047 5.22729 17.2162 12.0313 17.2162 20.3942C17.2162 23.4253 18.1226 26.2439 19.6662 28.6157L13.6204 28.5632C13.6169 28.5632 13.6134 28.5632 13.6099 28.5632C13.5912 28.5632 13.5761 28.5725 13.5586 28.5738C13.4431 28.5784 13.3299 28.6018 13.2191 28.6414C13.1911 28.652 13.162 28.6578 13.1352 28.6705C13.1212 28.6764 13.1072 28.6775 13.0932 28.6845L6.02078 32.1763C6.01955 32.1763 6.01846 32.1763 6.01846 32.1774L1.87663 34.1692C1.8311 34.189 1.78448 34.2158 1.73895 34.2462C0.0880496 35.3451 -0.474284 37.5035 0.429989 39.2675C0.911793 40.2055 1.73198 40.8963 2.74003 41.2124C3.12859 41.3336 3.52521 41.3932 3.91952 41.3932C4.55308 41.3932 5.18077 41.2381 5.75582 40.9313L8.79157 39.3166L13.7441 36.7592L16.7122 36.7417L4.80848 48.5883C4.80738 48.5895 4.80615 48.5895 4.80492 48.5906L1.8765 51.5073C1.18469 52.1957 0.80433 53.1091 0.80433 54.0834C0.80433 55.0564 1.18469 55.9722 1.8765 56.6618C2.58703 57.3688 3.52152 57.7235 4.45601 57.7235C5.39173 57.7235 6.32498 57.3688 7.03785 56.6618L9.91254 53.7987L13.7206 50.9555L15.6912 52.9179L11.8376 56.7551C11.8365 56.7563 11.8352 56.7563 11.834 56.7574L8.90559 59.6741C8.21378 60.3624 7.83343 61.2759 7.83343 62.2501C7.83343 63.2232 8.21378 64.1389 8.90559 64.8286C9.61613 65.5356 10.5518 65.8902 11.4863 65.8902C12.4208 65.8902 13.3565 65.5356 14.0682 64.8286L16.9977 61.9119L21.6842 57.2452C21.6854 57.244 21.6854 57.2429 21.6865 57.2417L23.8951 55.0541L23.8869 55.0459C23.9009 55.032 23.9207 55.0272 23.9348 55.0121L35.2353 42.6348L42.8281 43.7152C42.8829 43.7234 42.9377 43.7268 42.9926 43.7268C43.1338 43.7268 43.2703 43.693 43.4021 43.6428C43.4406 43.6289 43.4744 43.6102 43.5106 43.5916C43.5526 43.5705 43.5969 43.5589 43.6367 43.5321L50.6659 38.8654C50.6916 38.8479 50.7056 38.8199 50.73 38.8013C50.758 38.7791 50.7931 38.7698 50.8186 38.7452L53.5999 36.14C55.0471 34.784 55.2466 32.5627 54.0635 30.9737ZM4.66027 38.8721C4.28114 39.0751 3.85061 39.1159 3.43881 38.9853C3.03042 38.8582 2.69915 38.5793 2.50541 38.2025C2.15308 37.5164 2.35721 36.681 2.97436 36.2296L5.84796 34.8471L6.53977 36.8689L6.8303 37.7182L4.66027 38.8721ZM12.3102 34.874L8.92336 36.624L8.36459 34.9906L7.96331 33.8169L12.3968 31.6281L12.3102 34.874ZM45.3402 20.3918C45.3402 22.4008 44.8607 24.2956 44.03 25.9907L34.8832 21.8361C34.7875 20.582 34.1366 19.4841 33.1589 18.8004L36.3615 8.16843C41.5626 9.82289 45.3402 14.6751 45.3402 20.3918ZM19.5519 20.3918C19.5519 13.3158 25.3363 7.55825 32.4461 7.55825C32.9991 7.55825 33.5404 7.60487 34.0759 7.67255L30.9434 18.0713C30.9014 18.07 30.8617 18.0584 30.8185 18.0584C28.5598 18.0584 26.7222 19.8901 26.7222 22.1419C26.7222 24.3935 28.5598 26.2253 30.8185 26.2253C32.3375 26.2253 33.65 25.3865 34.3582 24.159L42.8073 27.9975C40.4564 31.1615 36.6938 33.2254 32.4459 33.2254C25.3363 33.2254 19.5519 27.4678 19.5519 20.3918ZM32.5814 22.1419C32.5814 23.1067 31.7903 23.8919 30.8185 23.8919C29.8467 23.8919 29.0557 23.1067 29.0557 22.1419C29.0557 21.177 29.8467 20.3918 30.8185 20.3918C31.7903 20.3918 32.5814 21.177 32.5814 22.1419ZM5.39186 55.0074C4.87506 55.5195 4.03846 55.5184 3.52289 55.0086C3.27433 54.76 3.13788 54.4323 3.13788 54.0834C3.13788 53.7357 3.27433 53.4079 3.52289 53.1618L5.62743 51.0652L7.48944 52.9191L5.39186 55.0074ZM12.4222 63.1742C11.9054 63.6864 11.0677 63.6876 10.552 63.1755C10.3034 62.9269 10.167 62.5992 10.167 62.2503C10.167 61.9026 10.3034 61.5747 10.552 61.3287L12.6579 59.2309L13.5388 60.1072L14.5211 61.0849L12.4222 63.1742ZM20.0384 55.5861C20.0371 55.5872 20.036 55.5872 20.0348 55.5884L16.1742 59.4385L15.2933 58.5622L14.311 57.5845L18.168 53.745C18.168 53.745 18.168 53.745 18.168 53.7439C18.1693 53.7427 18.1703 53.7427 18.1716 53.7416C18.2591 53.6541 18.3139 53.5491 18.3676 53.4453C18.3828 53.415 18.4119 53.3893 18.4248 53.3578C18.461 53.268 18.4668 53.1712 18.4808 53.0766C18.4878 53.0229 18.5112 52.9728 18.5112 52.9179C18.5112 52.8396 18.4832 52.7639 18.4669 52.6868C18.4529 52.6168 18.4529 52.5456 18.426 52.478C18.3817 52.3684 18.3058 52.2716 18.2265 52.177C18.2044 52.1513 18.1962 52.1186 18.1717 52.0941C18.1717 52.0941 18.1717 52.0941 18.1705 52.0941C18.1693 52.093 18.1693 52.0906 18.1682 52.0895L14.6529 48.5894C14.6156 48.5521 14.5678 48.5369 14.5258 48.5055C14.464 48.4576 14.4045 48.4133 14.3356 48.3794C14.2692 48.3467 14.2015 48.3269 14.1315 48.3082C14.0568 48.2871 13.9845 48.2709 13.9063 48.265C13.8351 48.2603 13.7686 48.2673 13.6975 48.2755C13.6193 48.2848 13.5459 48.2953 13.47 48.3198C13.3965 48.3432 13.3312 48.3793 13.2636 48.4178C13.2204 48.4423 13.1714 48.4505 13.1305 48.4809L9.25136 51.3766L7.2808 49.4142L12.5286 44.1945L22.0674 53.5759L20.0384 55.5861ZM34.9545 40.2371C34.9207 40.2325 34.8891 40.2453 34.8554 40.243C34.7702 40.2384 34.6886 40.2442 34.6034 40.2582C34.5369 40.2698 34.4739 40.2827 34.4109 40.3048C34.3362 40.3305 34.2686 40.3655 34.1996 40.4075C34.1343 40.4471 34.0748 40.4891 34.0177 40.5416C33.9896 40.5661 33.9559 40.5778 33.9302 40.6057L23.6527 51.862L14.1851 42.5506L20.3825 36.3858C20.8387 35.9308 20.8411 35.1923 20.386 34.7349C20.1562 34.5051 19.8541 34.3919 19.5519 34.3931V34.392L14.6985 34.4212L14.7592 30.9048L21.5493 30.9632C24.3166 33.7936 28.176 35.5588 32.4461 35.5588C33.4027 35.5588 34.3361 35.4597 35.2449 35.2904C35.3324 35.3604 35.4186 35.4317 35.5284 35.476L40.7996 37.576L41.1332 39.235L41.5228 41.1716L34.9545 40.2371ZM43.7944 40.6268L43.1096 37.2189L46.2736 34.8563L47.102 35.9553L48.3445 37.605L43.7944 40.6268ZM52.0055 34.434L50.1726 36.1514L48.1356 33.447L49.9544 32.0529C50.2939 31.7916 50.7221 31.6854 51.1421 31.7402C51.5644 31.7997 51.9378 32.0202 52.1921 32.362C52.6659 33.0002 52.5853 33.8904 52.0055 34.434Z" fill="#212121"/>
<path d="M29.7545 40.5651L25.0668 35.8984C24.613 35.4447 23.8755 35.4447 23.4205 35.8984L18.734 40.5651C18.5147 40.7857 18.391 41.0819 18.391 41.3923C18.391 41.7026 18.5135 42.0002 18.734 42.2195L23.4205 46.8861C23.648 47.1124 23.9468 47.2256 24.2443 47.2256C24.5418 47.2256 24.8404 47.1124 25.0668 46.8861L29.7545 42.2195C29.9738 42.0002 30.0987 41.7026 30.0987 41.3923C30.0987 41.0819 29.9749 40.7844 29.7545 40.5651ZM24.2443 44.4129L21.2109 41.3923L24.2443 38.3717L27.2788 41.3923L24.2443 44.4129Z" fill="#212121"/>
<path d="M37.5468 11.0923L36.9833 13.358C37.1385 13.3966 40.7844 14.3462 40.7844 18.0586H43.1178C43.1177 13.6461 39.4742 11.5718 37.5468 11.0923Z" fill="#212121"/>
<path d="M43.1178 20.3918H40.7844V22.7253H43.1178V20.3918Z" fill="#212121"/>
</svg>

<svg width="70" height="70" fill="none" xmlns="http://www.w3.org/2000/svg"><path d="M69.943 9.896a1.168 1.168 0 0 0-.941-.793l-4.18-.608-1.87-3.787c-.391-.798-1.7-.798-2.091 0l-1.87 3.787-4.18.608a1.167 1.167 0 0 0-.648 1.99l3.026 2.948-.714 4.162c-.075.438.105.88.463 1.142a1.16 1.16 0 0 0 1.23.088l3.738-1.966 3.738 1.966a1.168 1.168 0 0 0 1.693-1.23l-.714-4.162 3.025-2.949a1.17 1.17 0 0 0 .295-1.196ZM64.556 12.8c-.275.267-.4.655-.335 1.033l.417 2.437-2.188-1.15a1.165 1.165 0 0 0-1.088 0l-2.188 1.15.417-2.437a1.168 1.168 0 0 0-.334-1.033l-1.773-1.726 2.448-.356c.38-.055.708-.294.879-.639l1.094-2.216 1.094 2.216c.17.345.498.584.879.639l2.448.355-1.77 1.727ZM57.167 44.892h-2.333v2.334h2.333v-2.334ZM57.167 49.56h-2.333v2.332h2.333V49.56ZM59.5 47.226h-2.333v2.333H59.5v-2.333ZM54.834 47.226H52.5v2.333h2.334v-2.333ZM49 57.726h-2.333v2.333H49v-2.333ZM49 62.393h-2.333v2.333H49v-2.333ZM51.334 60.06H49v2.333h2.334v-2.334ZM46.667 60.06h-2.334v2.333h2.334v-2.334ZM35 53.06h-2.333v2.333H35v-2.334ZM35 57.726h-2.333v2.333H35v-2.333ZM37.333 55.393H35v2.333h2.333v-2.333ZM32.667 55.393h-2.334v2.333h2.334v-2.333ZM12.833 13.392H10.5v2.333h2.333v-2.333ZM12.833 18.059H10.5v2.333h2.333v-2.333ZM15.166 15.725h-2.333v2.334h2.333v-2.334ZM10.5 15.725H8.166v2.334H10.5v-2.334Z" fill="#2196F3"/><path d="M54.063 30.974a3.88 3.88 0 0 0-2.599-1.541 3.886 3.886 0 0 0-2.93.77L45.794 32.3l-.001.002-4.151 3.1-2.97-1.184c5.296-2.376 8.998-7.674 8.998-13.825 0-8.363-6.83-15.167-15.227-15.167s-15.228 6.804-15.228 15.167c0 3.031.907 5.85 2.45 8.222l-6.046-.053h-.01c-.019 0-.034.01-.051.01a1.14 1.14 0 0 0-.34.068c-.028.011-.057.017-.084.03-.014.005-.028.006-.042.014l-7.072 3.491-.003.001-4.141 1.992a.898.898 0 0 0-.138.077A3.895 3.895 0 0 0 .43 39.267a3.884 3.884 0 0 0 2.31 1.945 3.891 3.891 0 0 0 3.016-.281l3.036-1.614 4.952-2.558 2.968-.017L4.808 48.588c0 .002-.002.002-.003.003l-2.928 2.916a3.607 3.607 0 0 0-1.073 2.576 3.647 3.647 0 0 0 3.652 3.64c.936 0 1.869-.354 2.582-1.061l2.875-2.863 3.808-2.843 1.97 1.962-3.853 3.837-.004.002-2.928 2.917a3.607 3.607 0 0 0-1.073 2.576c0 .973.38 1.889 1.073 2.579a3.65 3.65 0 0 0 2.58 1.061c.935 0 1.87-.354 2.582-1.061l2.93-2.917 4.686-4.667.002-.003 2.21-2.188-.01-.008c.015-.014.035-.019.049-.034l11.3-12.377 7.593 1.08c.055.008.11.012.165.012.14 0 .277-.034.41-.084.038-.014.071-.033.108-.051.042-.021.086-.033.126-.06l7.029-4.667c.026-.017.04-.045.064-.064.028-.022.063-.031.089-.056l2.78-2.605a3.892 3.892 0 0 0 .465-5.166ZM4.66 38.872a1.56 1.56 0 0 1-1.221.113 1.564 1.564 0 0 1-.465-2.755l2.874-1.383.692 2.022.29.85-2.17 1.153Zm7.65-3.998-3.387 1.75-.558-1.633-.402-1.174 4.434-2.189-.087 3.246Zm33.03-14.482c0 2.009-.48 3.904-1.31 5.599l-9.147-4.155A4.07 4.07 0 0 0 33.16 18.8l3.203-10.632c5.2 1.655 8.978 6.507 8.978 12.224Zm-25.788 0c0-7.076 5.784-12.834 12.894-12.834.553 0 1.094.047 1.63.115L30.943 18.07c-.042-.001-.081-.013-.125-.013a4.094 4.094 0 0 0-4.096 4.084 4.094 4.094 0 0 0 4.096 4.083c1.52 0 2.832-.838 3.54-2.066l8.45 3.838c-2.352 3.165-6.114 5.228-10.362 5.228-7.11 0-12.894-5.757-12.894-12.833Zm13.03 1.75c0 .965-.792 1.75-1.764 1.75a1.759 1.759 0 0 1-1.762-1.75c0-.965.79-1.75 1.762-1.75s1.763.785 1.763 1.75ZM5.391 55.007a1.331 1.331 0 0 1-1.87.002 1.3 1.3 0 0 1 0-1.847l2.105-2.097L7.49 52.92l-2.097 2.088Zm7.03 8.167a1.33 1.33 0 0 1-1.87.002 1.299 1.299 0 0 1 0-1.847l2.106-2.098.88.876.983.978-2.099 2.09Zm7.616-7.588-.003.002-3.86 3.85-.882-.876-.982-.977 3.857-3.84v-.001l.004-.002c.087-.088.142-.193.196-.297.015-.03.044-.056.057-.087.036-.09.042-.187.056-.281.007-.054.03-.104.03-.16 0-.077-.028-.153-.044-.23-.014-.07-.014-.141-.041-.209a1.167 1.167 0 0 0-.2-.301c-.022-.026-.03-.058-.054-.083h-.002c0-.001 0-.003-.002-.005l-3.515-3.5c-.037-.037-.085-.052-.127-.084a1.116 1.116 0 0 0-.19-.126 1.084 1.084 0 0 0-.204-.07 1.127 1.127 0 0 0-.226-.044 1.133 1.133 0 0 0-.209.01c-.078.01-.151.02-.227.045a1.08 1.08 0 0 0-.206.098c-.044.024-.093.032-.133.063l-3.88 2.896-1.97-1.963 5.248-5.22 9.538 9.382-2.029 2.01Zm14.917-15.349c-.034-.005-.066.008-.1.006a1.148 1.148 0 0 0-.252.015 1.076 1.076 0 0 0-.404.15 1.12 1.12 0 0 0-.181.134c-.028.024-.062.036-.088.064L23.653 51.862l-9.468-9.311 6.197-6.165a1.168 1.168 0 0 0-.83-1.993v-.001l-4.854.03.061-3.517 6.79.058a15.2 15.2 0 0 0 10.897 4.596c.957 0 1.89-.1 2.799-.269.087.07.174.142.283.186l5.272 2.1.333 1.659.39 1.937-6.569-.935Zm8.84.39-.685-3.408 3.164-2.363.828 1.1 1.242 1.649-4.55 3.022Zm8.21-6.193-1.832 1.717-2.037-2.704 1.818-1.394c.34-.261.768-.368 1.188-.313.422.06.796.28 1.05.622a1.562 1.562 0 0 1-.187 2.072Z" fill="#212121"/><path d="m29.755 40.565-4.688-4.667a1.166 1.166 0 0 0-1.646 0l-4.687 4.667a1.172 1.172 0 0 0 0 1.654l4.686 4.667a1.166 1.166 0 0 0 1.647 0l4.688-4.667a1.167 1.167 0 0 0 0-1.654Zm-5.51 3.848-3.034-3.02 3.033-3.021 3.035 3.02-3.035 3.02ZM37.547 11.092l-.564 2.266c.156.039 3.801.988 3.801 4.7h2.334c0-4.412-3.644-6.486-5.571-6.966ZM43.118 20.392h-2.334v2.333h2.334v-2.333Z" fill="#212121"/></svg>
